X:392
T: Changle zaofan Li Zhengchun
N: C1894
O: China,Guangdong Wuhua
S: II, 371, 1)]
R: Shange]
M: 2/4
L: 1/16
K: C
d2d2d2de | A2A2d2B2 | d2d2d4- | d6
(3ede | A2cdd2cd | cdA6 |
d2d2d2de | A2A2d2B2 | d2d2d4- | d6
(3ede | A2cdd2cd | cdA6

@@@ Tune index: 6947
